X:9
T:Schottis efter Per Myr, Fun\"asdalen
R:schottis
H:\"Aven i Ador
A:H\"arjedalen
Z:hn-schottis-9
M:C|
K:Edor
E>DE>F G2G2|B>Ac>A B2B2|d>ed>c A2A2|A>ce>c G2G2|
E>DE>F G2G2|B>Ac>A B2B2|d>ed>c A>AF>D|E2E2 E4:|
|:e>fe>c d>ed>B|c>dc>A B2B2|E>DE>F G2G2|B>Ac>A B2B2|
e>fe>c d>ed>B|c>dc>A B2B2|E>DE>F G>AG>E|F2D2 E4:|
<end>
<start>
